!!!!SEGMENT: pl-wn--mus-iii-65-947-cim--001-013_sowinski-wojciech--swiety-wojciech-meczennik-no-11-krol-mieczyslaw.krn
!!!cenid: 18xx:3606
!!!COM: Sowiński, Wojciech
!!!COM-rismID: pe30008543
!!!CDT: ~1803-1880/03/05
!!!CNT:
!!!GTL: Święty Wojciech męczennik
!!!OTL: No. 11. Król Mieczysław
!!!OMV: 013
!!!PDT: 1877
!!!AGN:
!!!SMS-siglum: PL-Wn
!!!SMS-shelfmark: Mus.III.65.947 Cim.
!!!SMS-shelfwork: 001-013 G
!!!SMS-variant:
!!!SMS-altvar:
!!!NIFC-rismSourceID:
!!!NIFC-rismChildID:
!!!NIFC-islandoraID: none
!!!URL-pdf-islandora:
!!!URL-scan: https://polona2.pl/item/swiety-wojciech-meczennik-oratorjo-w-trzech-czesciach-dzielo-66-spiew-z-fortepianem,MTkzODI1Mzc/242/#item @EN{Scan on Polona} @PL{Skany w portalu Polona}
!!!IIIF: https://polona2.pl/iiif/item/MTkzODI1Mzc/manifest.js
!!!ONB-nifc: UWAGA: oratorium zawiera w źródle 28 numerów podzielonych na 30 plików (rozdzielenie w No. 6 - osobno Recitativo oraz Aria matki i No. 10 - osobno Recitativo, arja i chór oraz Sen). Polecam widok miniatur na Polonie. Uwaga co do obsady: prosimy umieszczać tylko partie występujące w danym numerze (nie całą obsadę oratorium)
!!!OMD: Allegro
!!!AIN: 1 piano 1 vox
!!!key:
**kern	**kern	**dynam	**kern	**text	**dynam
*part2	*part2	*part2	*part1	*part1	*part1
*staff3	*staff2	*	*staff1	*staff1	*
*Ipiano	*Ipiano	*	*Ivox	*	*
*I"Piano	*I"Piano	*	*I"Voce	*	*
*	*I'pf	*	*I'v. u.	*	*
*clefF4	*clefG2	*	*clefG2	*	*
*k[b-e-]	*k[b-e-]	*	*k[b-e-]	*	*
*B-:	*B-:	*	*B-:	*	*
*M4/4	*M4/4	*	*M4/4	*	*
*met(c)	*met(c)	*	*met(c)	*	*
=1	=1	=1	=1	=1	=1
*	*	*	*xywh-#94:626,520,1749,295	*	*
*xywh-#94:377,750,2081,456	*xywh-#94:377,750,2081,456	*	*	*	*
!	!	!	!LO:TX:a:B:t=All.o energico.	!	!
4B- 4BB-\	8.r	f	1r	.	.
.	16b-\KL	.	.	.	.
4r	8.gg\	.	.	.	.
.	16ff\Jk	.	.	.	.
8.r	8.ee-\L	.	.	.	.
16B-\KL	16dd\K	.	.	.	.
8.e-^\	8.cc\	.	.	.	.
16d\Jk	16b-\Jk	.	.	.	.
=2	=2	=2	=2	=2	=2
8.c\L	4a\	.	1r	.	.
16B-\K	.	.	.	.	.
8.A\	8cc\L	.	.	.	.
.	16dd\L	.	.	.	.
16G\Jk	16ee-\JJ	.	.	.	.
4.F\	8.ff\L	.	.	.	.
.	16ee-\K	.	.	.	.
.	8.dd\	.	.	.	.
(16G\LL	.	.	.	.	.
16A\JJ)	16cc\Jk	.	.	.	.
=3	=3	=3	=3	=3	=3
*^	*	*	*	*	*
*	*xywh-#94:377,750,2081,456	*xywh-#94:377,750,2081,456	*	*	*	*
4B-\	4ryy	8.dd\L	.	1r	.	.
.	.	16cc\K	.	.	.	.
[4d/	8D\L	8.b-\	.	.	.	.
.	8F#X\J	.	.	.	.	.
.	.	16a\Jk	.	.	.	.
4d/]	4G\	4g/	.	.	.	.
8c\L	4ryy	8.cc\L	.	.	.	.
16d\L	.	.	.	.	.	.
16en\JJ	.	16b-\Jk	.	.	.	.
*v	*v	*	*	*	*	*
=4	=4	=4	=4	=4	=4
*	*	*	*xywh-#94:389,1160,1940,270	*	*
*xywh-#94:356,1389,2037,398	*xywh-#94:356,1389,2037,398	*	*	*	*
!	!	!	!LO:TX:a:Bi:t=AZAEL	!	!
4fn\	4a/	.	2r	.	.
4F 4FF/	4ff 4cc 4a 4f\	.	.	.	.
2r	2r	.	8r	.	.
!	!	!	!LO:TX:a:t=Recit.	!	!
.	.	.	8cc\	W on-	.
.	.	.	8cc\	-czas	.
.	.	.	8cc\	Mie-	.
=5	=5	=5	=5	=5	=5
1r	1r	.	4.cc\	-czy-	.
.	.	.	8cc\	-sław,	.
.	.	.	4.a/	pan	.
.	.	.	8a/	Sło-	.
=6	=6	=6	=6	=6	=6
2r	2r	.	(4f/	-wiańs-	.
.	.	.	8a/)	.	.
.	.	.	8cc\	-kich	.
4r	4r	.	4ee-\	lu-	.
8.r	8.r	.	8dd\	-dów	.
.	.	.	8r	.	.
16B- 16BB-\	16dd 16b- 16f 16d/	.	.	.	.
=7	=7	=7	=7	=7	=7
4B- 4BB-\	4dd 4b- 4f 4d/	.	8r	.	.
.	.	.	8dd\	Uś-	.
4r	4r	.	4dd\	-wiet-	.
2r	2r	.	4dd\	-niał	.
.	.	.	(8dd\L	dom	.
.	.	.	8cc\J)	.	.
=8	=8	=8	=8	=8	=8
*	*	*	*xywh-#94:333,1779,2031,262	*	*
*xywh-#94:323,2008,1998,414	*xywh-#94:323,2008,1998,414	*	*	*	*
4r	4r	.	4bn\	Le-	.
4G 4GG/	4bn 4g 4f 4d/	.	4b\	-cha;	.
2r	2r	.	4b\	Na	.
.	.	.	8.b\	gród	.
.	.	.	16cc\	Wa-	.
=9	=9	=9	=9	=9	=9
1r	1r	.	4dd\	-we-	.
.	.	.	8dd\	-lu,	.
.	.	.	8dd\	już	.
.	.	.	4dd\	słyn-	.
.	.	.	8.dd\	-ne-	.
.	.	.	16ee-\	-go	.
=10	=10	=10	=10	=10	=10
4r	4r	.	4cc\	z cu-	.
8r	8r	.	4cc\	-dów	.
8c 8C\	8ee- 8cc 8e-\	f	.	.	.
2B- 2BB-\	2ff 2dd 2b- 2f\	.	4r	.	.
.	.	.	8r	.	.
.	.	.	8b-\	Za-	.
=11	=11	=11	=11	=11	=11
!	!	!	!LO:TX:a:t=più lento	!	!
4E- 4EE-/	4gg 4ee- 4b- 4g\	sf	2gg^\	-pra-	.
4r	4r	.	.	.	.
4F 4FF/	4ff 4ee- 4cc 4a\	.	8ff\	-sza	.
.	.	.	8ff\	Woj-	.
4r	4r	.	8.ff\	-cie-	.
.	.	.	16ee-;\	-cha.	.
=12	=12	=12	=12	=12	=12
*	*tremolo	*	*	*	*
*	*	*	*xywh-#94:345,2417,2001,279	*	*
*xywh-#94:356,2646,2042,599	*xywh-#94:356,2646,2042,599	*	*	*	*
!	!	!	!LO:TX:a:Bi:t=MIECZYSŁAW.	!	!
4BB- 4BBB-\	32dLLL 32B-/	sf	2dd\	Jam	.
.	32f/	.	.	.	.
.	32d 32B-/	.	.	.	.
.	32f/	.	.	.	.
.	32d 32B-/	.	.	.	.
.	32f/	.	.	.	.
.	32d 32B-/	.	.	.	.
.	32f/	.	.	.	.
!LO:TX:b:t=a tempo.	!	!	!	!	!
4r	32d 32B-/	.	.	.	.
.	32f/	.	.	.	.
.	32d 32B-/	.	.	.	.
.	32f/	.	.	.	.
.	32d 32B-/	.	.	.	.
.	32f/	.	.	.	.
.	32d 32B-/	.	.	.	.
.	32f/JJJ	.	.	.	.
2r	32dLLL 32B-/	.	8.dd\	śle-	.
.	32f/	.	.	.	.
.	32d 32B-/	.	.	.	.
.	32f/	.	.	.	.
.	32d 32B-/	.	.	.	.
.	32f/	.	.	.	.
.	32d 32B-/	.	16dd\	-py,	.
.	32f/	.	.	.	.
.	32d 32B-/	.	8.dd\	jeś-	.
.	32f/	.	.	.	.
.	32d 32B-/	.	.	.	.
.	32f/	.	.	.	.
.	32d 32B-/	.	.	.	.
.	32f/	.	.	.	.
.	32d 32B-/	.	16ee-\	-li	.
.	32f/JJJ	.	.	.	.
=13	=13	=13	=13	=13	=13
4BB- 4BBB-\	32cLLL 32A/	.	2.ff\	twe	.
.	32f/	.	.	.	.
.	32c 32A/	.	.	.	.
.	32f/	.	.	.	.
.	32c 32A/	.	.	.	.
.	32f/	.	.	.	.
.	32c 32A/	.	.	.	.
.	32f/	.	.	.	.
4r	32c 32A/	.	.	.	.
.	32f/	.	.	.	.
.	32c 32A/	.	.	.	.
.	32f/	.	.	.	.
.	32c 32A/	.	.	.	.
.	32f/	.	.	.	.
.	32c 32A/	.	.	.	.
.	32f/JJJ	.	.	.	.
2r	32cLLL 32A/	.	.	.	.
.	32f/	.	.	.	.
.	32c 32A/	.	.	.	.
.	32f/	.	.	.	.
.	32c 32A/	.	.	.	.
.	32f/	.	.	.	.
.	32c 32A/	.	.	.	.
.	32f/	.	.	.	.
.	32c 32A/	.	(8.cc\L	nad-	.
.	32f/	.	.	.	.
.	32c 32A/	.	.	.	.
.	32f/	.	.	.	.
.	32c 32A/	.	.	.	.
.	32f/	.	.	.	.
.	32c 32A/	.	16dd\Jk)	.	.
.	32f/JJJ	.	.	.	.
=14	=14	=14	=14	=14	=14
4BB- 4BBB-\	32B-LLL 32G/	.	(2ee-^\	-ziem-	.
.	32g 32e-/	.	.	.	.
.	32B- 32G/	.	.	.	.
.	32g 32e-/	.	.	.	.
.	32B- 32G/	.	.	.	.
.	32g 32e-/	.	.	.	.
.	32B- 32G/	.	.	.	.
.	32g 32e-/	.	.	.	.
4r	32B- 32G/	.	.	.	.
.	32g 32e-/	.	.	.	.
.	32B- 32G/	.	.	.	.
.	32g 32e-/	.	.	.	.
.	32B- 32G/	.	.	.	.
.	32g 32e-/	.	.	.	.
.	32B- 32G/	.	.	.	.
.	32gJJJ 32e-/	.	.	.	.
2r	32B-LLL 32G/	.	4.b-\)	.	.
.	32g 32e-/	.	.	.	.
.	32B- 32G/	.	.	.	.
.	32g 32e-/	.	.	.	.
.	32B- 32G/	.	.	.	.
.	32g 32e-/	.	.	.	.
.	32B- 32G/	.	.	.	.
.	32g 32e-/	.	.	.	.
.	32B- 32G/	.	.	.	.
.	32g 32e-/	.	.	.	.
.	32B- 32G/	.	.	.	.
.	32g 32e-/	.	.	.	.
.	32B- 32G/	.	8ee-\	-skie	.
.	32g 32e-/	.	.	.	.
.	32B- 32G/	.	.	.	.
.	32gJJJ 32e-/	.	.	.	.
=15	=15	=15	=15	=15	=15
!	!	!	!LO:TX:a:t=rall.	!	!
[2BB- [2BBB-\	32dLLL 32B-/	.	2dd\	cza-	.
.	32f/	.	.	.	.
.	32d 32B-/	.	.	.	.
.	32f/	.	.	.	.
.	32d 32B-/	.	.	.	.
.	32f/	.	.	.	.
.	32d 32B-/	.	.	.	.
.	32f/	.	.	.	.
.	32d 32B-/	.	.	.	.
.	32f/	.	.	.	.
.	32d 32B-/	.	.	.	.
.	32f/	.	.	.	.
.	32d 32B-/	.	.	.	.
.	32f/	.	.	.	.
.	32d 32B-/	.	.	.	.
.	32f/JJJ	.	.	.	.
*	*Xtremolo	*	*	*	*
4BB-] 4BBB-;\]	4d 4B- 4F;/	.	4dd;\	-ry	.
4r	4r	.	4r	.	.
=16	=16	=16	=16	=16	=16
!	!	!	!LO:TX:a:t=a tempo.	!	!LO:DY:a
4B- 4BB-\	8.dddL 8.dd\	f	2.dd\	Bos-	f
.	16dddJk 16dd\	.	.	.	.
4A 4AA\	8.dddL 8.dd\	.	.	.	.
.	16dddJk 16dd\	.	.	.	.
4G 4GG\	8.dddL 8.dd\	.	.	.	.
.	16dddJk 16dd\	.	.	.	.
4F 4FF\	8.dddL 8.dd\	.	4dd\	-ką	.
.	16dddJk 16dd\	.	.	.	.
=17	=17	=17	=17	=17	=17
*	*^	*	*	*	*
*	*	*	*	*xywh-#95:110,189,2028,258	*	*
*xywh-#95:4,373,2181,482	*xywh-#95:4,373,2181,482	*xywh-#95:4,373,2181,482	*	*	*	*
4En 4EEn/	8.dddL 8.dd\	4ryy	.	(4dd\	ma-	.
.	16dddJk 16dd\	.	.	.	.	.
(4en 4c (4E\	8.ccc/L	4cc\	>	8.cc\)	.	.
.	16bb-/Jk	.	.	16b-\	-ją	.
8f 8c 8F\))	8.aa/L	4cc\	]	4a\	moc	.
8r	.	.	.	.	.	.
.	16ccc/Jk	.	.	.	.	.
4r	4ff/	4ff\	.	4r	.	.
*	*v	*v	*	*	*	*
=18	=18	=18	=18	=18	=18
*	*8va	*	*	*	*
4e-X 4E-X^\	8.gggL 8.gg\	f	2gg^\	bos-	.
.	16gggJk 16gg\	.	.	.	.
4d 4D^\	8.gggL 8.gg\	.	.	.	.
.	16gggJk 16gg\	.	.	.	.
4c 4C^\	8.gggL 8.gg\	.	4ryy	.	.
.	16gggJk 16gg\	.	.	.	.
4B- 4BB-^\	8.gggL 8.gg\	.	4gg\	-ką	.
.	16gggJk 16gg\	.	.	.	.
=19	=19	=19	=19	=19	=19
*	*^	*	*	*	*
*	*xywh-#95:4,373,2181,482	*xywh-#95:4,373,2181,482	*	*	*	*
4A 4AA\	8.gggL 8.gg\	4ryy	.	(4gg\	ma-	.
.	16gggJk 16gg\	.	.	.	.	.
([4f 4c (4A\	8.fff/L	4ff\	>	8.ff\)	.	.
.	16eee-/K	.	.	16ee-\	-ją	.
4f] 4d 4B-\))	8.ddd/	4ff\	]	2dd\	moc,	.
.	16fff/Jk	.	.	.	.	.
4r	4bb-/	4bb-\	.	.	.	.
*	*v	*v	*	*	*	*
*	*X8va	*	*	*	*
=20	=20	=20	=20	=20	=20
!	!LO:TX:a:t=Corni	!	!	!	!
8.D\L	8.dL 8.F#X/	p	2r	.	.
16D\Jk	16dJk 16F#/	.	.	.	.
2D\	2d 2F#/	.	.	.	.
.	.	.	4ryy	.	.
!	!	!	!LO:TX:a:t=rit.	!	!
8.D\L	8.dL 8.F#/	.	4dd\	Z ry-	p
16D\Jk	16dJk 16F#/	.	.	.	.
=21	=21	=21	=21	=21	=21
*	*	*	*xywh-#95:88,802,2003,250	*	*
*xywh-#95:105,1009,2000,396	*xywh-#95:105,1009,2000,396	*	*	*	*
8.GL 8.GG\	8.dL 8.B-/	.	2dd\	-cers-	.
16GJk 16GG\	16dJk 16B-/	.	.	.	.
2G 2GG^\	2d 2B-/	.	.	.	.
.	.	.	4dd\	-twem	.
!	!	!	!LO:TX:t=P:LO:N:vis=8:problem	!	!
4G 4GG\	8.d/L	<	8.dd\	ca-	.
.	16B-/Jk	.	16een\	-łém	.
=22	=22	=22	=22	=22	=22
8.FL 8.FF\	8.cL 8.A/	.	2.ff\	przyj-	.
16FJk 16FF\	16cJk 16A/	[	.	.	.
2F 2FF\	2c 2A/	.	.	.	.
8.FL 8.FF\	4c 4A/	.	4f/	-mę	.
16E-Jk 16EE-\	.	.	.	.	.
=23	=23	=23	=23	=23	=23
2D-X 2DD-X/	2f 2A-X/	f	(2ff\	znak	.
!	!LO:TX:b:B:t=largo	!	!LO:TX:a:B:t=Largo	!	!
4A-X 4AA-X\	4e- 4c 4A-/	.	4.ee-X\)	.	.
4A- 4AA-\	8.e-L 8.c 8.A-/	.	.	.	.
.	.	.	8ee-\	twéj	.
.	16e-Jk 16c 16A-/	.	.	.	.
=24	=24	=24	=24	=24	=24
*	*^	*	*	*	*
*	*xywh-#95:105,1009,2000,396	*xywh-#95:105,1009,2000,396	*	*	*	*
2.E- 2.EE-\	2.g-X 2.e-/	2.B-/	.	2.gg-X\	wia-	.
4F 4FF\	8.f/L	4A\	p	8.ff\	-ry	.
.	16e-/Jk	.	.	16ee-\	twéj	.
=25	=25	=25	=25	=25	=25	=25
*	*	*	*	*xywh-#95:92,1324,2106,252	*	*
*xywh-#95:102,1543,2021,412	*xywh-#95:102,1543,2021,412	*xywh-#95:102,1543,2021,412	*	*	*	*
2BB-/	2d/	2B-/	p	2dd\	wia-	.
!	!	!	!	!LO:TX:a:t=rall.	!	!
4G 4GG\	4d/	4B-/	.	4dd\	-ry;	.
!	!LO:TX:b:t=rall.	!	!	!	!	!
4E- 4EE-\	8.f/L	4c 4G\	.	(8gg\L	Zdejm	.
.	.	.	.	8ee-\J)	.	.
.	16e-/Jk	.	.	.	.	.
*	*v	*v	*	*	*	*
=26	=26	=26	=26	=26	=26
2F 2FF\	2d 2B-/	pp	2dd\	z mych	.
4F 4FF\	4c 4B-/	.	4.cc^\	o-	.
4F 4FF\	4c 4A/	.	.	.	.
.	.	.	8cc\	-czu	.
=27	=27	=27	=27	=27	=27
4BB- 4BBB-/	8.B-/	.	2b-\	noc!	.
.	(16b-\KL	f	.	.	.
4r	8.gg\)	.	.	.	.
.	(16ff\Jk	.	.	.	.
8.r	8.ee-\L)	.	2r	.	.
16B-\KL	(16dd\K	.	.	.	.
8.e-\	8.cc\)	.	.	.	.
16d\Jk	(16b-\Jk	.	.	.	.
=28	=28	=28	=28	=28	=28
8.c\L	4a\)	.	1r	.	.
16B-\K	.	.	.	.	.
8.A\	8cc\L	.	.	.	.
.	16dd\L	.	.	.	.
(16G\Jk	16ee-\JJ	.	.	.	.
4.F\)	8.ff\L	.	.	.	.
.	(16ee-\K	.	.	.	.
.	8.dd\)	.	.	.	.
(16G\LL	.	.	.	.	.
16A\JJ	(16cc\Jk	.	.	.	.
=29	=29	=29	=29	=29	=29
*	*	*	*xywh-#95:133,1865,1958,278	*	*
*xywh-#95:61,2036,2049,529	*xywh-#95:61,2036,2049,529	*	*	*	*
4B-\)	8.dd\L)	.	1r	.	.
.	(16cc\K	.	.	.	.
(8D\L	8.b-\)	.	.	.	.
16En\L	.	.	.	.	.
16F#X\JJ)	(16a\Jk	.	.	.	.
4G\	4g\)	.	.	.	.
8c\L	8.cc^\L	.	.	.	.
16d\L	.	.	.	.	.
16en\JJ	16b-\Jk	.	.	.	.
=30	=30	=30	=30	=30	=30
*^	*	*	*	*	*
*	*xywh-#95:61,2036,2049,529	*xywh-#95:61,2036,2049,529	*	*	*	*
8f\L	4ryy	8a/L	.	2r	.	.
8F\J	.	16f/L	.	.	.	.
.	.	16ff/JJ	.	.	.	.
8en/L	2F\	16g/LL	.	.	.	.
.	.	16gg/	.	.	.	.
8e-X/J	.	16a/	.	.	.	.
.	.	16aa/JJ	.	.	.	.
8d/L	.	16b-\LL	.	4r	.	.
.	.	16bb-\	.	.	.	.
8e-/	.	16a\	.	.	.	.
.	.	16aa\JJ	.	.	.	.
8d/	4ryy	16b-\LL	.	8r	.	.
.	.	16bb-\	.	.	.	.
8c/J	.	16cc\	.	8f/	Od	.
.	.	16ccc\JJ	.	.	.	.
*v	*v	*	*	*	*	*
=31	=31	=31	=31	=31	=31
!	!	!	!	!	!LO:DY:a
4B- 4BB-^\	8.dddL 8.dd\	f	2dd\	szczy-	f
.	16dddJk 16dd\	.	.	.	.
4A 4AA^\	8.dddL 8.dd\	.	.	.	.
.	16dddJk 16dd\	.	.	.	.
4G 4GG^\	8.dddL 8.dd\	.	2dd\	-tu	.
.	16dddJk 16dd\	.	.	.	.
4F 4FF^\	8.dddL 8.dd\	.	.	.	.
.	16dddJk 16dd\	.	.	.	.
=32	=32	=32	=32	=32	=32
4En 4EEn/	8.dddL 8.dd\	.	4dd\	Ta-	.
.	16dddJk 16dd\	.	.	.	.
(4en [4c 4G\	8.cccL 8.cc\	.	(8.cc\L	-trów	.
.	16bb-Jk 16b-\	.	16b-\Jk)	.	.
4f 4c] 4F\)	8.aaL 8.a\	.	4.a\	aż	.
.	16cccJk 16cc\	.	.	.	.
4r	4ff 4f\	.	.	.	.
.	.	.	8f/	do	.
=33	=33	=33	=33	=33	=33
*	*8va	*	*xywh-#95:104,2472,2048,325	*	*
*xywh-#95:74,2739,2038,437	*xywh-#95:74,2739,2038,437	*	*	*	*
4e-X 4E-X^\	8.gggL 8.gg\	.	2gg^\	wód	.
.	16gggJk 16gg\	.	.	.	.
4d 4D^\	8.gggL 8.gg\	.	.	.	.
.	16gggJk 16gg\	.	.	.	.
4c 4C^\	8.gggL 8.gg\	.	4ryy	.	.
.	16gggJk 16gg\	.	.	.	.
4B- 4BB-^\	8.gggL 8.gg\	.	4g/	do	.
.	16gggJk 16gg\	.	.	.	.
=34	=34	=34	=34	=34	=34
4A 4AA\	8.gggL 8.gg\	.	(4gg\	wód	.
.	16gggJk 16gg\	.	.	.	.
4f 4c 4A\	8.fffL 8.ff/	.	8ff\)	.	.
.	.	.	16ee-\	Bal-	.
.	16eee-Jk 16ee-/	.	(8.dd\L	-ty-	.
4.f 4.B-\	8.dddL 8.dd/	.	.	.	.
.	.	.	8ff\J)	.	.
.	16fffJk 16ff/	.	.	.	.
.	[4bb- [4b-/	.	4b-\	-ku,	.
8D 8DD\	.	.	.	.	.
=35	=35	=35	=35	=35	=35
4.E- 4.EE-\	8.bb-]L 8.b-/]	.	8.g/	Gdzie	.
.	16gg/Jk	.	16g/	po-	.
.	[4ccc [4cc/	.	4.cc^\	-mors-	.
8En 8EEn\	.	.	.	.	.
4.F 4.FF\	8.ccc]L 8.cc/]	.	.	.	.
.	.	.	8a/	-ka	.
.	16aa/Jk	.	.	.	.
.	[4ddd [4dd/	.	4dd^\	błóń	.
8F#X 8FF#X\	.	.	.	.	.
=36	=36	=36	=36	=36	=36
4.G 4.GG\	8.ddd]L 8.dd\]	.	8.b-\	gdzie	.
.	16bb-\Jk	.	16b-\	po-	.
.	[4eee- [4ee-\	.	(4.ee-\	-mor-	.
8G#X 8GG#X\	.	.	.	.	.
4.A 4.AA\	8.eee-]L 8.ee-\]	.	.	.	.
.	.	.	8cc\)	.	.
.	16ccc\Jk	.	.	.	.
.	8.fffL 8.ff\	.	(8.ff\L	-ska	.
8c 8C\	.	.	.	.	.
.	16eee-\Jk	.	16ee-\Jk)	.	.
=37	=37	=37	=37	=37	=37
*	*	*	*xywh-#96:388,104,1978,323	*	*
*xywh-#96:347,338,2010,478	*xywh-#96:347,338,2010,478	*	*	*	*
4B- 4BB-\	8dddL 8ff\	.	4dd\	błoń,	.
*	*X8va	*	*	*	*
.	(16f\L	.	.	.	.
.	16g\JJ	.	.	.	.
4r	16a\LL	.	4r	.	.
.	16b-\	.	.	.	.
.	16cc\	.	.	.	.
.	16dd\JJ	.	.	.	.
4r	16ee-\LL	.	4r	.	.
.	16ff\	.	.	.	.
.	16gg\	.	.	.	.
.	16aa\JJ	.	.	.	.
*	*8va	*	*	*	*
4D 4DD^/	20bb-\LL	.	8r	.	.
.	20ccc\	.	.	.	.
.	20ddd\	.	.	.	.
!	!	!	!	!	!LO:DY:a
.	.	.	8ff\	Te	f
.	20eee-\	.	.	.	.
.	20fff\JJ	.	.	.	.
=38	=38	=38	=38	=38	=38
8E- 8EE-\	8ggg-X\)	.	2gg-X\	żyz-	.
*	*X8va	*	*	*	*
8e-L 8E-\	16gg-XLL 16cc 16a\	.	.	.	.
.	16gg-JJ 16cc 16a\	.	.	.	.
8e- 8E-\	8gg-L 8cc 8a\	.	.	.	.
8e-J 8E-\	8gg-J 8cc 8a\	.	.	.	.
4.e- 4.E-\	4.gg- 4.cc 4.a\	.	4a/	-ne	.
.	.	.	8.a/	żyz-	.
8e- 8E-\	8gg- 8cc 8a\	.	.	.	.
.	.	.	16a/	-ne	.
=39	=39	=39	=39	=39	=39
2d 2D\	2ff 2b- 2f\	.	(4.b-\	po-	.
.	.	.	16dd\LL	.	.
.	.	.	16cc\JJ	.	.
4d 4D\	16b-\LL	.	4b-\)	-la,	.
.	16a\	.	.	.	.
.	16b-\	.	.	.	.
.	16cc\JJ	.	.	.	.
4r	16dd\LL	.	8r	.	.
.	16ee-\	.	.	.	.
.	16een\	.	8b-\	te	.
.	16ff\JJ	.	.	.	.
=40	=40	=40	=40	=40	=40
8E-L 8EE-\	8gg-X\L	.	2.gg-X\	lu-	.
16e-L 16E-\	16gg-L 16cc 16a\	.	.	.	.
16e-JJ 16E-\	16gg-JJ 16cc 16a\	.	.	.	.
8e-L 8E-\	8gg-L 8cc 8a\	.	.	.	.
8e-J 8E-\	8gg-J 8cc 8a\	.	.	.	.
2e- 2E-\	2gg- 2cc 2a^\	.	.	.	.
.	.	.	8.gg-\	-dy	.
.	.	.	16an/	bez	.
=41	=41	=41	=41	=41	=41
*	*	*	*xywh-#96:428,697,1919,329	*	*
*xywh-#96:399,953,1924,466	*xywh-#96:399,953,1924,466	*	*	*	*
2d-X 2D-X\	2gg-X 2dd-X 2b-^\	sf	2gg-X\	li-	.
4d- 4D-\	4ff 4dd- 4a-X\	.	4.ff\	-ku,	.
4dn 4Dn\	4ff 4bn 4a-\	.	.	.	.
.	.	.	8ff\	dziś	.
=42	=42	=42	=42	=42	=42
2c 2C\	2ff 2cc 2an\	.	2ff\	od-	.
4c 4C\	4ff 4cc 4a\	.	4ff\	-dam	.
!	!	!	!	!	!LO:DY:a
4c 4C\	4een 4cc 4g\	.	8.een\	w two-	<
.	.	.	16ee\	-ją	[[
=43	=43	=43	=43	=43	=43
2F 2FF\	8.ffL 8.a\	<	2.ff\	dłoń	.
.	16f\K	.	.	.	.
.	8.a\	.	.	.	.
.	16cc\Jk	.	.	.	.
8.F\L	4ff\	[	.	.	.
16F\K	.	.	.	.	.
8.A\	4ee-X\	.	4ee-X\	dziś	.
16c\Jk	.	.	.	.	.
=44	=44	=44	=44	=44	=44
*	*^	*	*	*	*
*	*xywh-#96:399,953,1924,466	*xywh-#96:399,953,1924,466	*	*	*	*
2B-\	2dd\	2f\	>	2dd\	od-	.
!	!	!	!	!LO:TX:a:t=marcato	!	!
4G\	4dd\	4b-\	.	4dd\	-dam	.
4E-\	8.ff/L	4cc 4g\	]	8.ff\	w two-	.
.	16ee-/Jk	.	.	16ee-\	-ją	.
*	*v	*v	*	*	*	*
=45	=45	=45	=45	=45	=45
!	!	!	!	!	!LO:DY:a
4F\	4dd 4b- 4f\	.	2dd\	dłoń!	f
4r	4r	.	.	.	.
4F 4FF/	4cc 4a 4f\	.	4.cc\	w two-	.
4F 4FF/	4cc 4a 4f\	.	.	.	.
.	.	.	8cc\	-ją	.
=46	=46	=46	=46	=46	=46
*	*	*	*xywh-#96:365,1345,2025,276	*	*
*xywh-#96:401,1554,1954,442	*xywh-#96:401,1554,1954,442	*	*	*	*
4B- 4BB-\	8.b-\	.	2b-\	dłoń!	.
.	(16b-\KL	.	.	.	.
4r	8.gg\)	.	.	.	.
.	(16ff\Jk	.	.	.	.
8.r	8.ee-\L)	.	2r	.	.
16B-\KL	(16dd\K	f	.	.	.
8.e-^\	8.cc\)	.	.	.	.
(16d\Jk	(16b-\Jk	.	.	.	.
=47	=47	=47	=47	=47	=47
8.c\L)	4a\)	.	1r	.	.
16B-\K	.	.	.	.	.
8.A\	8cc\L	<	.	.	.
.	(16dd\L	.	.	.	.
16G\Jk	16ee-\JJ	.	.	.	.
4.F^\	8.ff\L)	.	.	.	.
.	(16ee-\K	[	.	.	.
.	8.dd\)	.	.	.	.
16G\LL	.	.	.	.	.
16A\JJ	16cc\Jk	.	.	.	.
=48	=48	=48	=48	=48	=48
8.B-\L	8.b-\L	.	1r	.	.
16A\K	16cc\K	.	.	.	.
8.G\	8.dd\	.	.	.	.
16E-\Jk	(16ee-Jk 16cc 16g\	.	.	.	.
4F\	4dd 4b- 4f\)	.	.	.	.
4FF/	4cc 4a 4f\	.	.	.	.
=49	=49	=49	=49	=49	=49
(8BB-\L	8b-L 8f 8d/	.	1r	.	.
16BB-\L	(16B-/L	.	.	.	.
16AA\JJ	16A/JJ	.	.	.	.
16BB-\LL	16B-/LL	.	.	.	.
16C\	16c/	.	.	.	.
16D\	16d/	.	.	.	.
16C\JJ)	16c/JJ	.	.	.	.
4BB-\	4B-/)	.	.	.	.
4r	[4b-^\	.	.	.	.
=50	=50	=50	=50	=50	=50
*	*	*	*xywh-#96:363,1923,1991,296	*	*
*xywh-#96:312,2092,2035,491	*xywh-#96:312,2092,2035,491	*	*	*	*
[2A [2F#X [2D\	16b-/LL]	p	2r	.	.
.	16a/	.	.	.	.
.	16b-/	.	.	.	.
.	16a/JJ	.	.	.	.
.	16b-/LL	.	.	.	.
.	16a/	.	.	.	.
.	16f/	.	.	.	.
.	16d/JJ	.	.	.	.
8A]L 8F#] 8D\]	[2dd^\	.	4r	.	.
8A 8F# 8D\	.	.	.	.	.
!	!	!	!	!	!LO:DY:a
8A 8F# 8D\	.	.	4a/	Bo	p
8AJ 8F# 8D\	.	.	.	.	.
=51	=51	=51	=51	=51	=51
[2A [2F#X [2D\	16dd/LL]	.	2.a/	to	.
.	(16a/	.	.	.	.
.	16b-/	.	.	.	.
.	16a/JJ	.	.	.	.
.	16b-/LL	.	.	.	.
.	16a/	.	.	.	.
.	16f#X/	.	.	.	.
.	16d/JJ)	.	.	.	.
8A]L 8F#] 8D\]	4dd\	>	.	.	.
8F# 8D\	.	.	.	.	.
8A 8F#\	[4cc\	]]	(8.a/L	śle-	.
8F#J 8D\	.	.	.	.	.
.	.	.	16cc/Jk)	.	.
=52	=52	=52	=52	=52	=52
[2B- [2G\	16cc\LL]	.	2b-\	-po-	.
.	16b-\	.	.	.	.
.	16cc\	.	.	.	.
.	16b-\JJ	.	.	.	.
.	16cc/LL	.	.	.	.
.	16b-/	.	.	.	.
.	16g/	.	.	.	.
.	16d/JJ	.	.	.	.
8B-]L 8G\]	[2dd^\	.	4b-\	-tę	.
8B- 8G\	.	.	.	.	.
8B- 8G\	.	.	4r	.	.
8B-J 8G\	.	.	.	.	.
=53	=53	=53	=53	=53	=53
[2B- [2G\	16dd\LL]	.	2r	.	.
.	(16b-\	.	.	.	.
.	16cc\	.	.	.	.
.	16b-\JJ	.	.	.	.
.	16cc/LL	.	.	.	.
.	16b-/	.	.	.	.
.	16g/	.	.	.	.
.	16d/JJ)	.	.	.	.
8B-]L 8G\]	[4dd\	.	4.g/	z pie-	.
8B- 8G\	.	.	.	.	.
8B- 8G\	8dd\L]	.	.	.	.
8B-J 8G\	8cc\J	.	8a/	-kieł	.
=54	=54	=54	=54	=54	=54
*	*	*	*xywh-#96:295,2506,2126,286	*	*
*xywh-#96:399,2696,1959,444	*xywh-#96:399,2696,1959,444	*	*	*	*
[2Bn [2G [2F\	16cc\LL	.	2bn\	mi	.
.	16bn\	.	.	.	.
.	16cc\	.	.	.	.
.	16b\JJ	.	.	.	.
.	16cc/LL	.	.	.	.
.	16b/	.	.	.	.
.	16g/	.	.	.	.
.	16d'/JJ	.	.	.	.
8B]L 8G] 8F\]	[2dd\	.	4.b\	z pie-	.
8B 8G 8F\	.	.	.	.	.
8B 8G 8F\	.	.	.	.	.
8BJ 8G 8F\	.	.	8b\	-kieł	.
=55	=55	=55	=55	=55	=55
[2Bn [2G [2F\	16dd\LL]	.	(2dd\	mi	.
.	16dd\	.	.	.	.
.	16ee-\	.	.	.	.
.	16dd\JJ	.	.	.	.
.	16ee-\LL	.	.	.	.
.	16dd\	.	.	.	.
.	16bn\	.	.	.	.
.	16g\JJ	.	.	.	.
8B] 8G] 8F\]	4gg\	.	4ee-\)	.	.
8BBn\L	.	.	.	.	.
8D\	[4ff\	.	4dd\	ze-	.
[8G\J	.	.	.	.	.
=56	=56	=56	=56	=56	=56
(2G_ [2E- [2C\	16ff\LL]	.	2cc\	-sła-	.
.	16ee-\	.	.	.	.
.	16ff\	.	.	.	.
.	16ee-\JJ	.	.	.	.
.	16ff\LL	.	.	.	.
.	16ee-\	.	.	.	.
.	16cc\	.	.	.	.
.	16g\JJ	.	.	.	.
8cL 8G] 8E-] 8C\])	[2e-^/	.	4cc\	-ną	.
8c 8G 8E- 8C\	.	.	.	.	.
8c 8G 8E- 8C\	.	.	4r	.	.
8cJ 8G 8E- 8C\	.	.	.	.	.
=57	=57	=57	=57	=57	=57
[2c [2G [2E- [2C\	16e-/LL]	.	2r	.	.
.	(16e-/	.	.	.	.
.	16f/	.	.	.	.
.	16e-/JJ	.	.	.	.
.	16d/LL	.	.	.	.
.	16e-/	.	.	.	.
.	16g/	.	.	.	.
.	16cc/JJ)	.	.	.	.
8c]L 8G] 8E-] 8C\]	[2ee-\	.	4ee-\	cu-	.
8c 8G 8E- 8C\	.	.	.	.	.
8c 8G 8E- 8C\	.	.	4ee-\	-dem	.
8cJ 8G 8E- 8C\	.	.	.	.	.
=58	=58	=58	=58	=58	=58
*	*	*	*xywh-#97:197,203,1889,230	*	*
*xywh-#97:162,415,1973,385	*xywh-#97:162,415,1973,385	*	*	*	*
[2B-X [2G 2E- [2D-X\	16ee-\LL]	.	2.ee-\	zdjąć	.
.	(16ee-\	.	.	.	.
.	16ff\	.	.	.	.
.	16ee-\JJ	.	.	.	.
.	16ff\LL	.	.	.	.
.	16ee-\	.	.	.	.
.	16b-\	.	.	.	.
.	16g\JJ)	.	.	.	.
8B-]L 8G] 8E- 8D-\]	[2e-^/	.	.	.	.
8B- 8G 8E- 8D-\	.	.	.	.	.
!	!	!	!	!	!LO:DY:a
8B- 8G 8E- 8D-\	.	.	8.ee-\	zdjąć	<
8B-J 8G 8E- 8D-\	.	.	.	.	.
.	.	.	16ee-\	by	[[
=59	=59	=59	=59	=59	=59
[2c [2A-X 2E- [2C\	16e-/LL]	.	2.ee-\	mógł,	.
.	(16e-/	.	.	.	.
.	16f/	.	.	.	.
.	16e-/JJ	.	.	.	.
.	16d/LL	.	.	.	.
.	16e-/	.	.	.	.
.	16a-X/	.	.	.	.
.	16cc/JJ)	.	.	.	.
8c]L 8A-] 8E- 8C\]	[2ee-^\	.	.	.	.
8c 8A- 8E- 8C\	.	.	.	.	.
8c 8A- 8E- 8C\	.	.	4ee-\	Na	.
8cJ 8A- 8E- 8C\	.	.	.	.	.
=60	=60	=60	=60	=60	=60
2G 2En 2C 2BB-\	16ee-\LL]	.	2.een\	zie-	.
.	(16een\	.	.	.	.
.	16ff\	.	.	.	.
.	16gg\JJ	.	.	.	.
.	16gg\LL	.	.	.	.
.	16ee\	.	.	.	.
.	16cc\	.	.	.	.
.	16g\JJ)	.	.	.	.
8GL 8E 8C 8BB-\	[2en^/	.	.	.	.
8G 8E 8C 8BB-\	.	.	.	.	.
8G 8E 8C 8BB-\	.	.	4ee\	-mi	.
8GJ 8E 8C 8BB-\	.	.	.	.	.
=61	=61	=61	=61	=61	=61
!	!	!	!	!	!LO:DY:a
[2F [2C [2AA-X\	16en/LL]	.	1ff^	te-	f
.	16f/	.	.	.	.
.	16g/	.	.	.	.
.	16f/JJ	.	.	.	.
.	16e/LL	.	.	.	.
.	16f/	.	.	.	.
.	16a-X/	.	.	.	.
.	16cc/JJ	.	.	.	.
8F]L 8C] 8AA-\]	2ff^\	.	.	.	.
8F 8C 8AA-\	.	.	.	.	.
8F 8C 8AA-\	.	.	.	.	.
8FJ 8C 8AA-\	.	.	.	.	.
=62	=62	=62	=62	=62	=62
*	*	*	*xywh-#97:146,753,1931,272	*	*
*xywh-#97:127,987,1995,389	*xywh-#97:127,987,1995,389	*	*	*	*
[2F#X [2E- [2C [2AAn\	8ff#X\L	sf	2.ff#X\	-mu	.
.	(16ff#\L	.	.	.	.
.	16een\JJ	.	.	.	.
.	16ff#\LL	.	.	.	.
.	16ee-X\	.	.	.	.
.	16cc\	.	.	.	.
.	16a\JJ)	.	.	.	.
8F#]L 8E-] 8C] 8AA\]	2f#X/	.	.	.	.
8F# 8E- 8C 8AA\	.	.	.	.	.
8F# 8E- 8C 8AA\	.	.	8.ff#\	snać	.
8F#J 8E- 8C 8AA\	.	.	.	.	.
.	.	.	16ff#\	od	.
=63	=63	=63	=63	=63	=63
2G 2GG\	2gg 2ee- 2cc 2g\	f	2.gg\	nie-	.
4G 4GG^\	4gg 4dd 4bn 4g\	.	.	.	.
4G 4GG^\	4gg 4dd 4b 4g\	.	4gg\	-bios	.
=64	=64	=64	=64	=64	=64
2F 2FF^\	2aa-X 2dd 2b- 2a-X\	sf	(8aa-X\L	da-	.
.	.	.	8ff\J)	.	.
.	.	.	(8dd\L	-no	.
.	.	.	8b-\J)	.	.
4r	4r	.	8a-X/	Rzą-	.
.	.	.	8f/	-dzić	.
4B-^\	4aa- 4ff 4dd 4a-\	.	8.b-/	jak	.
.	.	.	16a-/	sam	.
=65	=65	=65	=65	=65	=65
4E- 4EE-/	8gg 8ee- 8b- 8g\	<	1g	Bóg	.
.	4gg 4b- 4g\	.	.	.	.
4E- 4EE-/	.	.	.	.	.
.	4gg 4b- 4g\	.	.	.	.
4D 4DD/	.	.	.	.	.
.	4gg 4b- 4g\	.	.	.	.
4D-X 4DD-X/	.	.	.	.	.
.	8gg 8b- 8g\	[[	.	.	.
=66	=66	=66	=66	=66	=66
*	*	*	*xywh-#97:179,1363,1886,255	*	*
*xywh-#97:141,1554,1937,399	*xywh-#97:141,1554,1937,399	*	*	*	*
4C 4CC/	4gg 4een 4b- 4g\	.	(8gg\L	da-	.
.	.	.	8een\J)	.	.
4r	4r	.	(8cc\L	-no	.
.	.	.	8dd-X\J)	.	.
4r	4r	.	8cc\	rzą-	.
.	.	.	8g/	-dzić	.
4c 4C\	4een 4g\	.	8.cc\	jak	.
.	.	.	16b-\	sam	.
=67	=67	=67	=67	=67	=67
2F 2FF\	12f\L	.	2a-X/	Bóg	.
.	12a-X\	.	.	.	.
.	12cc\J	.	.	.	.
.	8ffL 8f\	.	.	.	.
.	8ffJ 8f\	.	.	.	.
*	*tremolo	*	*	*	*
4A-X 4AA-X\	16f\LL	f	2r	.	.
.	16ff\	.	.	.	.
.	16f\	.	.	.	.
.	16ff\JJ	.	.	.	.
4c 4C\	16f\LL	.	.	.	.
.	16ff\	.	.	.	.
.	16f\	.	.	.	.
.	16ff\JJ	.	.	.	.
=68	=68	=68	=68	=68	=68
2d-X 2D-X\	16f\LL	.	2.ff\	te-	.
.	16ff\	.	.	.	.
.	16f\	.	.	.	.
.	16ff\JJ	.	.	.	.
.	16f\LL	.	.	.	.
.	16ff\	.	.	.	.
.	16f\	.	.	.	.
.	16ff\JJ	.	.	.	.
4c 4C\	16f\LL	.	.	.	.
.	16ff\	.	.	.	.
.	16f\	.	.	.	.
.	16ff\JJ	.	.	.	.
4Bn 4BBn\	16f\LL	.	4ff\	-mu	.
.	16ff\	.	.	.	.
.	16f\	.	.	.	.
.	16ff\JJ	.	.	.	.
=69	=69	=69	=69	=69	=69
2Bn 2BBn\	16f\LL	.	2ff^\	da-	.
.	16ff\	.	.	.	.
.	16f\	.	.	.	.
.	16ff\JJ	.	.	.	.
.	16f\LL	.	.	.	.
.	16ff\	.	.	.	.
.	16f\	.	.	.	.
.	16ff\JJ	.	.	.	.
4c 4C\	16f\LL	.	4ryy	.	.
.	16ff\	.	.	.	.
.	16f\	.	.	.	.
.	16ff\JJ	.	.	.	.
4d-X 4D-X\	16f\LL	.	4f/	-no	.
.	16ff\	.	.	.	.
.	16f\	.	.	.	.
.	16ff\JJ	.	.	.	.
*	*Xtremolo	*	*	*	*
=70	=70	=70	=70	=70	=70
*	*	*	*xywh-#97:174,1961,1914,240	*	*
*xywh-#97:112,2154,2001,417	*xywh-#97:112,2154,2001,417	*	*	*	*
!	!	!	!	!	!LO:DY:a
4c 4C\	4ff 4cc 4a-X 4f\	.	[2cc\	rzą-	p
4r	4r	.	.	.	.
!	!	!	!	!	!LO:DY:a
4c 4C\	4ff 4cc 4a- 4f\	.	4.cc\]	.	<
4c 4C\	4ff 4cc 4a- 4f\	.	.	.	.
.	.	.	8cc\	-dzić	[[
=71	=71	=71	=71	=71	=71
!	!	!	!LO:TX:a:t=rall.	!	!
4c 4C^\	4ff 4cc 4a-X 4f\	.	[2cc\	jak	.
4r	4r	.	.	.	.
4c 4C^\	4een 4cc 4b- 4g\	.	4.cc\]	.	.
4r	4r	.	.	.	.
.	.	.	8gg\	sam	.
=72	=72	=72	=72	=72	=72
!!!OMD: Allegro
!	!	!	!LO:TX:a:t=a tempo.	!	!
4F 4FF/	8.ffL 8.an 8.f\	.	2ff\	Bóg	.
.	16a\K	.	.	.	.
4r	8.gg\	.	.	.	.
.	16ff\Jk	.	.	.	.
8.r	8.ee-L 8.cc\	.	2r	.	.
16F\KL	16ddK 16b-\	.	.	.	.
8.e-\	8.cc 8.a\	.	.	.	.
16d\Jk	16b-Jk 16g\	.	.	.	.
=73	=73	=73	=73	=73	=73
8.c\L	8.aL 8.f/	.	2r	.	.
16B-\K	16g/K	.	.	.	.
8.A\	8.f/	.	.	.	.
16B-\Jk	16g/Jk	.	.	.	.
8.A\L	8.f\L	.	4r	.	.
16FK 16FF\	16a\K	.	.	.	.
8.G 8.GG\	8.ff\	.	8.f/	Co	.
16AJk 16AA\	16ee-\Jk	.	16f/	za	.
=74	=74	=74	=74	=74	=74
*	*	*	*xywh-#97:123,2519,1950,252	*	*
*xywh-#97:117,2739,1987,450	*xywh-#97:117,2739,1987,450	*	*	*	*
4B- 4BB-\	8dd/L	.	2.dd\	cud	.
.	16dL 16B-/	.	.	.	.
.	16AJJ 16F/	.	.	.	.
*	*tremolo	*	*	*	*
2BB- 2BBB-\	16dLL 16B-/	.	.	.	.
.	16A 16F/	.	.	.	.
.	16d 16B-/	.	.	.	.
.	16AJJ 16F/	.	.	.	.
.	16dLL 16B-/	.	.	.	.
.	16A 16F/	.	.	.	.
.	16d 16B-/	.	.	.	.
.	16AJJ 16F/	.	.	.	.
4BB- 4BBB-\	16dLL 16B-/	.	8.dd\	co	.
.	16A 16F/	.	.	.	.
.	16d 16B-/	.	.	.	.
.	16AJJ 16F/	.	16dd\	za	.
=75	=75	=75	=75	=75	=75
4BB- 4BBB-\	16fLL 16c 16A/	.	2.ff\	cud!	.
.	16F/	.	.	.	.
.	16f 16c 16A/	.	.	.	.
.	16F/	.	.	.	.
4r	16f 16c 16A/	.	.	.	.
.	16F/	.	.	.	.
.	16f 16c 16A/	.	.	.	.
.	16F/JJ	.	.	.	.
2r	16fLL 16c 16A/	.	.	.	.
.	16F/	.	.	.	.
.	16f 16c 16A/	.	.	.	.
.	16F/	.	.	.	.
.	16f 16c 16A/	.	8.cc\	wi-	.
.	16F/	.	.	.	.
.	16f 16c 16A/	.	.	.	.
.	16F/JJ	.	16dd\	-dzę	.
=76	=76	=76	=76	=76	=76
4BB- 4BBB-\	16e-LL 16B-/	.	2.ee-\	Słoń-	.
.	16G/	.	.	.	.
.	16e- 16B-/	.	.	.	.
.	16G/	.	.	.	.
4r	16e- 16B-/	.	.	.	.
.	16G/	.	.	.	.
.	16e- 16B-/	.	.	.	.
.	16G/JJ	.	.	.	.
*	*Xtremolo	*	*	*	*
4r	4ryy	>	.	.	.
4BB- 4BBB-\	16g-XLL 16e- 16B-/	.	8.b-\	-ce	.
.	16G-X/	.	.	.	.
.	16e- 16B-/	.	.	.	.
.	16G-/JJ	]]	16ee-\	na	.
=77	=77	=77	=77	=77	=77
2BB- 2BBB-;\	2f 2d 2B- 2F;/	.	4dd\	nie-	.
.	.	.	4dd;\	-bie!	.
2r	2r	.	4ryy	.	.
.	.	.	8.b-\	co	.
.	.	.	16cc\	za	.
=78	=78	=78	=78	=78	=78
*	*	*	*xywh-#98:429,188,1942,277	*	*
*xywh-#98:471,417,1937,422	*xywh-#98:471,417,1937,422	*	*	*	*
!	!	!	!	!	!LO:DY:a
(4B- 4BB-\	8.ddL 8.d/	p	[1dd	cud!	f
.	16ddJk 16d/	.	.	.	.
4A 4AA\	8.ddL 8.d/	.	.	.	.
.	16ddJk 16d/	.	.	.	.
4G 4GG\	8.ddL 8.b-\	.	.	.	.
.	16ddJk 16b-\	.	.	.	.
4F 4FF\	8.ddL 8.a\	.	.	.	.
.	16ddJk 16a\	.	.	.	.
=79	=79	=79	=79	=79	=79
*	*^	*	*	*	*
*	*xywh-#98:471,417,1937,422	*xywh-#98:471,417,1937,422	*	*	*	*
4E- 4EE-\)	8.dd/L	2g\	.	4dd\]	.	.
.	16dd/Jk	.	.	.	.	.
([4c 4En\	8.cc/L	.	>	8.cc\	wi-	.
.	16b-/Jk	.	.	16b-\	-dzę	.
4c_ [4F\)	8.a/L	8.a\L	]	8.a\	jas-	.
.	16cc/Jk	16cc\Jk	.	16cc\	-ny	.
8c] 8F\]	8f/	8f\	.	4f/	dzień!	.
8r	8r	8ryy	.	.	.	.
*	*v	*v	*	*	*	*
=80	=80	=80	=80	=80	=80
(4e-X 4E-^\	8.ggL 8.g\	.	8.g/	co	.
.	16ggJk 16g\	.	16g/	za	.
4d 4D\	8.ggL 8.g\	.	[2.gg\	cud!	.
.	16ggJk 16g\	.	.	.	.
4c 4C\	8.ggL 8.ee-\	.	.	.	.
.	16ggJk 16ee-\	.	.	.	.
4B- 4BB-\	8.ggL 8.dd\	.	.	.	.
.	16ggJk 16dd\	.	.	.	.
=81	=81	=81	=81	=81	=81
*^	*^	*	*	*	*
*	*xywh-#98:471,417,1937,422	*xywh-#98:471,417,1937,422	*xywh-#98:471,417,1937,422	*	*	*	*
4A 4AA/)	2A\	8.ggL 8.ee-/	2cc\	.	4gg\]	.	.
.	.	16gg/Jk	.	.	.	.	.
[4f/	.	8.ff/L	.	.	8.ff^\	wi-	.
.	.	16ee-/Jk	.	.	16ee-\	-dzę	.
4f/_	[4B-\	8.dd/L	8.dd\L	.	(8.dd\L	Słoń-	.
.	.	16ff/Jk	16ff\Jk	.	16ff\Jk)	.	.
8f/]	8.B-\L]	4b-/	4b-\	.	4b-\	-ce!	.
8r	.	.	.	.	.	.	.
.	16D\Jk	.	.	.	.	.	.
*v	*v	*	*	*	*	*	*
*	*v	*v	*	*	*	*
=82	=82	=82	=82	=82	=82
*	*	*	*xywh-#98:466,801,1932,260	*	*
*xywh-#98:417,994,1998,447	*xywh-#98:417,994,1998,447	*	*	*	*
4.E- 4.EE-\	8.b-/L	<	8.g/	O	.
.	16g/Jk	[	16g/	jak	.
.	[4cc^\	.	4cc\	wiel-	.
8En 8EE-\	.	.	.	.	.
4.F 4.FF\	8.cc\L]	.	8.a/	-ki	.
.	16a\Jk	.	16a/	ten	.
.	[4dd\	.	4dd\	świat	.
8F#X 8FF\	.	.	.	.	.
=83	=83	=83	=83	=83	=83
4.G 4.GG\	8.dd\L]	.	8b-\	o	.
.	.	.	8b-\	jak	.
.	16b-\Jk	.	.	.	.
.	[4ee-\	.	4ee-^\	wiel-	.
8G#X 8GG\	.	.	.	.	.
4.A 4.AA\	8.ee-\L]	.	8.cc\	-ki	.
.	16cc\Jk	.	16cc\	ten	.
.	4ff\	.	4ff^\	świat!	.
8F 8FF\	.	.	.	.	.
=84	=84	=84	=84	=84	=84
*	*tremolo	*	*	*	*
2B- 2BB-\	16ddLL 16b- 16f/	f	2dd\	W Chrys-	.
!	!LO:TX:b:t=animato	!	!	!	!
.	16d/	.	.	.	.
.	16dd 16b- 16f/	.	.	.	.
.	16d/	.	.	.	.
.	16dd 16b- 16f/	.	.	.	.
.	16d/	.	.	.	.
.	16dd 16b- 16f/	.	.	.	.
.	16d/JJ	.	.	.	.
2A 2AA^\	16ddLL 16cc 16f#X/	.	4.dd\	-tu-	.
.	16d/	.	.	.	.
.	16dd 16cc 16f#/	.	.	.	.
.	16d/	.	.	.	.
.	16dd 16cc 16f#/	.	.	.	.
.	16d/	.	.	.	.
.	16dd 16cc 16f#/	.	8dd\	-sa	.
.	16d/JJ	.	.	.	.
=85	=85	=85	=85	=85	=85
2G 2GG\	16ddLL 16b- 16g\	.	[2dd\	wie-	.
.	16d\	.	.	.	.
.	16dd 16b- 16g\	.	.	.	.
.	16d\	.	.	.	.
.	16dd 16b- 16g\	.	.	.	.
.	16d\	.	.	.	.
.	16dd 16b- 16g\	.	.	.	.
.	16d\JJ	.	.	.	.
4.G 4.GG\	16ddLL 16b- 16g\	.	4.dd\]	.	.
.	16d\	.	.	.	.
.	16dd 16b- 16g\	.	.	.	.
.	16d\JJ	.	.	.	.
*	*Xtremolo	*	*	*	*
.	16ddLL 16b- 16g\	.	.	.	.
.	16d\	.	.	.	.
8G 8GG\	16een 16dd 16b-\	.	8een\	-rzę!	.
.	16en\JJ	.	.	.	.
=86	=86	=86	=86	=86	=86
*	*tremolo	*	*	*	*
*	*	*	*xywh-#98:417,1373,2018,267	*	*
*xywh-#98:444,1575,1986,461	*xywh-#98:444,1575,1986,461	*	*	*	*
2F 2FF\	16ffLL 16dd 16b-\	sf	4ff\	chwa-	.
.	16f\	.	.	.	.
.	16ff 16dd 16b-\	.	.	.	.
.	16f\	.	.	.	.
.	16ff 16dd 16b-\	.	4ff\	-ła	.
.	16f\	.	.	.	.
.	16ff 16dd 16b-\	.	.	.	.
.	16f\JJ	.	.	.	.
2F 2FF/	16ffLL 16ee- 16cc 16a\	sf	4.f/	mu	.
.	16f\	.	.	.	.
.	16ff 16ee- 16cc 16a\	.	.	.	.
.	16f\	.	.	.	.
.	16ff 16ee- 16cc 16a\	.	.	.	.
.	16f\	.	.	.	.
.	16ff 16ee- 16cc 16a\	.	8ee-X\	przez	.
.	16f\JJ	.	.	.	.
*	*Xtremolo	*	*	*	*
=87	=87	=87	=87	=87	=87
2B- 2BB-\	8ffL 8dd 8f\	.	2dd\	cie-	.
.	16f\L	<	.	.	.
.	16ff\JJ	.	.	.	.
.	16en\LL	.	.	.	.
.	16een\	.	.	.	.
.	16f\	.	.	.	.
.	16ff\JJ	.	.	.	.
2r	16g\LL	.	4dd\	-bie	.
.	16gg\	.	.	.	.
.	16a\	.	.	.	.
.	16aa\JJ	.	.	.	.
.	16b-\LL	.	4r	.	.
.	16bb-\	.	.	.	.
.	16cc\	.	.	.	.
.	16ccc\JJ	[[	.	.	.
=88	=88	=88	=88	=88	=88
*	*tremolo	*	*	*	*
!	!	!	!	!	!LO:DY:a
2B- 2BB-^\	16dddLL 16bb- 16ff\	.	2dd\	W Chrys-	f
.	16dd\	.	.	.	.
.	16ddd 16bb- 16ff\	.	.	.	.
.	16dd\	.	.	.	.
.	16ddd 16bb- 16ff\	.	.	.	.
.	16dd\	.	.	.	.
.	16ddd 16bb- 16ff\	.	.	.	.
.	16dd\JJ	.	.	.	.
2A 2AA^\	16dddLL 16ccc 16ff#X\	.	4.dd\	-tu-	.
.	16dd\	.	.	.	.
.	16ddd 16ccc 16ff#\	.	.	.	.
.	16dd\	.	.	.	.
.	16ddd 16ccc 16ff#\	.	.	.	.
.	16dd\	.	.	.	.
.	16ddd 16ccc 16ff#\	.	8dd\	-sa	.
.	16dd\JJ	.	.	.	.
=89	=89	=89	=89	=89	=89
2G 2GG\	16dddLL 16bb- 16gg\	.	[2dd\	wi-	.
.	16dd\	.	.	.	.
.	16ddd 16bb- 16gg\	.	.	.	.
.	16dd\	<	.	.	.
.	16ddd 16bb- 16gg\	.	.	.	.
.	16dd\	.	.	.	.
.	16ddd 16bb- 16gg\	.	.	.	.
.	16dd\JJ	.	.	.	.
4.G 4.GG\	16dddLL 16bb- 16gg\	.	4.dd\]	.	.
.	16dd\	.	.	.	.
.	16ddd 16bb- 16gg\	.	.	.	.
.	16dd\JJ	.	.	.	.
.	16dddLL 16bb- 16gg\	[	.	.	.
.	16dd\	.	.	.	.
8G-X 8GG-X\	16eeen 16ddd-X 16bb-\	.	8een\	-rze!	.
.	16ee-\JJ	.	.	.	.
=90	=90	=90	=90	=90	=90
*	*8va	*	*	*	*
*	*	*	*xywh-#98:464,1975,1971,279	*	*
*xywh-#98:486,2204,1939,420	*xywh-#98:486,2204,1939,420	*	*	*	*
2F 2FF/	16fffLL 16dddn 16bb-\	.	4ff\	chwa-	.
.	16ff\	.	.	.	.
.	16fff 16dddn 16bb-\	.	.	.	.
.	16ff\	.	.	.	.
.	16fff 16dddn 16bb-\	.	4ff\	-ła	.
.	16ff\	.	.	.	.
.	16fff 16dddn 16bb-\	.	.	.	.
.	16ff\JJ	.	.	.	.
4.En 4.EEn/	16ggg\LL	.	4.gg\	mu	.
.	16gg\	.	.	.	.
.	16ggg\	.	.	.	.
.	16gg\JJ	.	.	.	.
*	*Xtremolo	*	*	*	*
.	16ggg\LL	.	.	.	.
.	16gg\	.	.	.	.
8E-X 8EE-X/	16aaa\	.	8aa\	przez	.
.	16aa\JJ	.	.	.	.
=91	=91	=91	=91	=91	=91
4D 4DD/	8bbb- 8bb-\	ff	1bb-	cie-	.
.	4bbb- 4bb-\	.	.	.	.
4B- 4F 4D\	.	.	.	.	.
.	4bbb- 4bb-\	.	.	.	.
4B- 4F 4D\	.	.	.	.	.
.	4bbb- 4bb-\	.	.	.	.
4B- 4F 4D\	.	.	.	.	.
.	[8bbb- [8bb-\	.	.	.	.
=92	=92	=92	=92	=92	=92
4c 4B- 4G 4E-\	8bbb-] 8bb-\]	.	2bb-\	-bie!	.
.	4bbb- 4bb-\	.	.	.	.
4c 4B- 4G 4E-\	.	.	.	.	.
.	4ggg 4gg\	.	.	.	.
!	!	!	!	!	!LO:DY:a
4c 4B- 4G 4E-\	.	.	4.b-\	Pa-	f
.	4eee- 4ee-\	.	.	.	.
4c 4B- 4G 4E-\	.	.	.	.	.
.	8ccc 8cc/	.	8cc\	-nuj,	.
=93	=93	=93	=93	=93	=93
8FL 8FF\	8dddL 8bb- 8ff 8dd/	.	[2dd\	tyś	.
*	*X8va	*	*	*	*
!	!LO:TX:a:t=loco.	!	!	!	!
16dL 16B- 16F\	16ddL 16b- 16f 16d/	.	.	.	.
16dJJ 16B- 16F\	16ddJJ 16b- 16f 16d/	.	.	.	.
8dL 8B- 8F\	8ddL 8b- 8f 8d/	.	.	.	.
8dJ 8B- 8F\	8ddJ 8b- 8f 8d/	.	.	.	.
4d 4B- 4F\	4dd 4b- 4f 4d/	.	4.dd\]	.	.
4r	4r	.	.	.	.
.	.	.	8dd\	mój	.
=94	=94	=94	=94	=94	=94
*	*8va	*	*	*	*
*	*	*	*xywh-#98:459,2573,2025,255	*	*
*xywh-#98:463,2746,1934,451	*xywh-#98:463,2746,1934,451	*	*	*	*
8FL 8FF\	8cccL 8aa 8ff 8dd/	.	2ff\	brat	.
16cL 16A 16F\	16cccL 16aa 16ff 16cc/	.	.	.	.
16cJJ 16A 16F\	16cccJJ 16aa 16ff 16cc/	.	.	.	.
8cL 8A 8F\	8cccL 8aa 8ff 8cc/	.	.	.	.
8cJ 8A 8F\	8cccJ 8aa 8ff 8cc/	.	.	.	.
4c 4A 4F\	4ccc 4aa 4ff 4cc/	.	4.gg\	tyś	.
4c 4A 4F\	4fff 4ccc 4aa 4ff/	.	.	.	.
.	.	.	8aa 8ff\	mój	.
=95	=95	=95	=95	=95	=95
*	*^	*	*	*	*
*	*xywh-#98:463,2746,1934,451	*xywh-#98:463,2746,1934,451	*	*	*	*
[2B- [2BB-\	8.bbb-L 8.fff 8.ddd 8.bb-\	2ryy	.	2bb- 2b-\	brat!	.
*	*X8va	*	*	*	*	*
.	16b-\Jk	.	.	.	.	.
.	8.gg\L	.	.	.	.	.
.	16ff\Jk	.	.	.	.	.
8.B-]L 8.BB-\]	8.ryy	8.ee-\L	.	2r	.	.
16B-\K	16dd/KL	16dd\K	.	.	.	.
8.e-\	8.aa/	8.cc\	.	.	.	.
16d\Jk	16bb-/Jk	16b-\Jk	.	.	.	.
*	*v	*v	*	*	*	*
=96	=96	=96	=96	=96	=96
8.c\L	8.aaL 8.a/	.	1r	.	.
16B-\K	16ggK 16g/	.	.	.	.
8.A\	8.ff 8.f/	.	.	.	.
16G\Jk	16ee-Jk 16e-/	.	.	.	.
8.F\L	8.ddL 8.d/	.	.	.	.
16E-\K	16ccK 16c/	.	.	.	.
8.D\	8.b- 8.B-/	.	.	.	.
16C\Jk	16aJk 16A/	.	.	.	.
=97	=97	=97	=97	=97	=97
4BB-/	4b- 4B-/	.	1r	.	.
4r	4r	.	.	.	.
4B- 4BB-\	4ddd 4bb- 4ff 4dd\	.	.	.	.
4r	4r	.	.	.	.
=98	=98	=98	=98	=98	=98
2BB- 2BBB-\	2B- 2F 2D/	.	1r	.	.
2r	2r	.	.	.	.
==	==	==	==	==	==
*-	*-	*-	*-	*-	*-
!!!system-decoration: s1{(s2,s3)}
!!!RDF**kern: > = above
!!!RDF**kern: < = below
!!!RDF**dynam: > = "Dim.", fontstyle= "bold-italic"
!!!RDF**dynam: < = "Cres.", fontstyle= "bold-italic"
!!!RDF**kern: | = vertical stroke
!!!RDF**kern: N = linked
!!!RDF**kern: i = editorial accidental
!!!RDF**kern: l = terminal long
!!!ENC: Filip Voros
!!!END: 2022-02-22
!!!EED: Wojciech Jakubiak-Danek
!!!EEV: 2022-02-28
!!!ENC-iiif: Bartosz Żurakowski
!!!END-iiif: 2022-09-06
!!!YEC: Copyright 2022 Narodowy Instytut Fryderyka Chopina (https://polishscores.org)
!!!YEM: License CC-BY-4.0 (https://creativecommons.org/licenses/by/4.0)
